docs/.gitbook/assets/icon-quote-block-16@dark.svg

<svg width="32" height="32" viewBox="0 0 16 16" fill="none" xmlns="http://www.w3.org/2000/svg">
<rect x="0" y="0" width="16" height="16" fill="#181c1f"/>
<path fill-rule="evenodd" clip-rule="evenodd" d="M2.92742 3.07189C2.92753 3.07165 2.92764 3.07142 2.92775 3.07118C3.10487 2.69746 2.946 2.25074 2.57245 2.07286C2.19847 1.89478 1.75094 2.05358 1.57285 2.42756L2.24455 2.74741C1.57285 2.42756 1.57279 2.42769 1.57273 2.42783L1.57259 2.42812L1.57227 2.42878L1.57151 2.4304L1.56944 2.43479L1.56323 2.44816C1.5582 2.45907 1.55143 2.47396 1.54316 2.49257C1.52663 2.52976 1.50406 2.58195 1.47749 2.64705C1.42449 2.7769 1.35478 2.96002 1.28516 3.17932C1.1486 3.60946 1 4.21697 1 4.85001V6.25001C1 6.66422 1.33579 7.00001 1.75 7.00001H3.25C3.66421 7.00001 4 6.66422 4 6.25001V4.85001C4 4.43579 3.66421 4.10001 3.25 4.10001H2.58929C2.62527 3.93539 2.66907 3.77736 2.71484 3.63319C2.77022 3.45874 2.82551 3.31374 2.86626 3.2139C2.88656 3.16415 2.90306 3.12611 2.91387 3.10178L2.92554 3.07595L2.92769 3.07131L2.92754 3.07162L2.92742 3.07189ZM6.57245 2.07286C6.94602 2.25075 7.10489 2.69751 6.92772 3.07125C6.92753 3.07165 6.92734 3.07205 6.92715 3.07246L6.25 2.75001C6.92715 3.07246 6.9272 3.07233 6.92726 3.07221L6.92737 3.07199L6.92554 3.07595L6.91387 3.10178C6.90306 3.12611 6.88656 3.16415 6.86626 3.2139C6.82551 3.31374 6.77022 3.45874 6.71484 3.63319C6.66907 3.77736 6.62527 3.93539 6.58929 4.10001H7.25C7.66421 4.10001 8 4.43579 8 4.85001V6.25001C8 6.66422 7.66421 7.00001 7.25 7.00001H5.75C5.33579 7.00001 5 6.66422 5 6.25001V4.85001C5 4.21697 5.1486 3.60946 5.28516 3.17932C5.35478 2.96002 5.42449 2.7769 5.47749 2.64705C5.50406 2.58195 5.52663 2.52976 5.54316 2.49257C5.55143 2.47396 5.5582 2.45907 5.56323 2.44816L5.56944 2.43479L5.57151 2.4304L5.57227 2.42878L5.57259 2.42812L5.57273 2.42783C5.57279 2.42769 5.57285 2.42756 6.25 2.75001L5.57285 2.42756C5.75094 2.05358 6.19847 1.89478 6.57245 2.07286ZM10 2.75001C10 2.33579 10.3358 2.00001 10.75 2.00001H14.25C14.6642 2.00001 15 2.33579 15 2.75001C15 3.16422 14.6642 3.50001 14.25 3.50001H10.75C10.3358 3.50001 10 3.16422 10 2.75001ZM10 6.25001C10 5.83579 10.3358 5.50001 10.75 5.50001H14.25C14.6642 5.50001 15 5.83579 15 6.25001C15 6.66422 14.6642 7.00001 14.25 7.00001H10.75C10.3358 7.00001 10 6.66422 10 6.25001ZM1 9.75001C1 9.33579 1.33579 9.00001 1.75 9.00001H14.25C14.6642 9.00001 15 9.33579 15 9.75001C15 10.1642 14.6642 10.5 14.25 10.5H1.75C1.33579 10.5 1 10.1642 1 9.75001ZM1 13.25C1 12.8358 1.33579 12.5 1.75 12.5H14.25C14.6642 12.5 15 12.8358 15 13.25C15 13.6642 14.6642 14 14.25 14H1.75C1.33579 14 1 13.6642 1 13.25Z" fill="#fff"/>
</svg>

<svg xmlns="http://www.w3.org/2000/svg" width="32" height="32" fill="none" viewBox="0 0 16 16"><path fill="#181c1f" d="M0 0h16v16H0z"/><path fill="#fff" fill-rule="evenodd" d="M2.927 3.072a.75.75 0 0 0-1.354-.644l.672.32-.672-.32-.001.002-.003.005-.006.013a4 4 0 0 0-.086.2 7 7 0 0 0-.192.531C1.15 3.61 1 4.217 1 4.85v1.4c0 .414.336.75.75.75h1.5A.75.75 0 0 0 4 6.25v-1.4a.75.75 0 0 0-.75-.75h-.66a5.3 5.3 0 0 1 .324-.998l.012-.026zm3.645-1a.75.75 0 0 1 .356 1L6.25 2.75l.677.322-.001.004-.012.026-.048.112a5.6 5.6 0 0 0-.277.886h.661a.75.75 0 0 1 .75.75v1.4a.75.75 0 0 1-.75.75h-1.5A.75.75 0 0 1 5 6.25v-1.4c0-.633.149-1.24.285-1.67a7 7 0 0 1 .278-.732l.006-.013.003-.005v-.002l.678.322-.677-.322a.75.75 0 0 1 1-.355M10 2.75a.75.75 0 0 1 .75-.75h3.5a.75.75 0 0 1 0 1.5h-3.5a.75.75 0 0 1-.75-.75m0 3.5a.75.75 0 0 1 .75-.75h3.5a.75.75 0 0 1 0 1.5h-3.5a.75.75 0 0 1-.75-.75m-9 3.5A.75.75 0 0 1 1.75 9h12.5a.75.75 0 0 1 0 1.5H1.75A.75.75 0 0 1 1 9.75m0 3.5a.75.75 0 0 1 .75-.75h12.5a.75.75 0 0 1 0 1.5H1.75a.75.75 0 0 1-.75-.75" clip-rule="evenodd"/></svg>
